X:28
T:Reel 28
M:4/4
K:Amix
L:1/8
AB|cBAG EDCD|EGAB A3B|cBAc BAGB|AGEC D2ED|CB,CD EAAG|EDEF G2AB|cABG AGED|EAAG A2||AB|cBAG EGAB|cAec BGEB|cBAG EGAB|cAAG A2AB|cBAB cABc|dBGB d2ed|cABG AGED|EAAG A2|
